svg/u1f4c1.svg

<svg viewBox="0 0 128 128" xmlns="http://www.w3.org/2000/svg">
  <defs/>
  <path d="M46.19,27.93 L46.19,26.19 C46.19,22.72 44.11,22 41.83,22.41 L22.73,25.86 C20.44,26.27 18.76,28.33 18.76,30.73 L18.76,35.17 C18.76,36.79 17.63,38.18 16.08,38.46 L15.74,38.52 C14.4,38.76 13.41,39.96 13.41,41.37 L14.49,115.4 C14.49,115.4 14.41,116.58 15.52,116.66 C16.67,116.74 17.54,115.86 18.69,115.59 L108.33,94.23 C109.67,93.99 110.66,92.79 110.66,91.38 L110.66,25.35 C110.66,23.56 109.1,22.2 107.39,22.5 L51.08,32.19 C48.53,32.64 46.19,31.68 46.19,27.93 Z" fill="#F3AB47"/>
  <path d="M112.56,91.65 L114.58,32 C114.58,30.21 113.02,28.85 111.31,29.15 L55.04,38.77 C52.42,39.22 50.45,41.41 50.29,44.06 L50.06,47.83 C49.88,50.85 47.63,53.35 44.65,53.85 L22,57.66 C19.76,58.04 18.11,59.98 18.11,62.26 L15.52,116.64 C15.52,116.64 15.85,116.78 19.56,115.84 L108.76,94.73 C110.11,94.51 111.65,93.25 112.56,91.65 Z" fill="#FFE36C"/>
  <path d="M21.462,57.744 L44.197,53.859 Q47.88,53.034 49.028,51.486 Q49.997,50.178 49.99,46.872 L50,45.669 L50.001,45.647 Q50.315,39.68 56.04,38.694 L111.709,29.045 Q112.695,28.874 112.865,29.859 Q112.951,30.352 112.747,30.641 Q112.543,30.93 112.051,31.015 L56.38,40.666 Q52.239,41.378 52,45.731 L51.99,46.868 Q51.999,50.837 50.635,52.677 Q49.039,54.829 44.607,55.816 L44.583,55.821 L21.798,59.716 Q21.306,59.8 21.017,59.596 Q20.729,59.391 20.644,58.898 Q20.476,57.913 21.462,57.744 Z" fill="#FFF9C4"/>
</svg>

<svg viewBox="0 0 128 128" xmlns="http://www.w3.org/2000/svg">
  <g>
    <path d="M46.19,27.93v-1.74c0-3.47-2.08-4.19-4.36-3.78l-19.1,3.45c-2.29,0.41-3.97,2.47-3.97,4.87v4.44 c0,1.62-1.13,3.01-2.68,3.29l-0.34,0.06c-1.34,0.24-2.33,1.44-2.33,2.85l1.08,74.03c0,0-0.08,1.18,1.03,1.26 c1.15,0.08,2.02-0.8,3.17-1.07l89.64-21.36c1.34-0.24,2.33-1.44,2.33-2.85V25.35c0-1.79-1.56-3.15-3.27-2.85l-56.31,9.69 C48.53,32.64,46.19,31.68,46.19,27.93z" fill="#F3AB47"/>
    <path d="M112.56,91.65l2.02-59.65c0-1.79-1.56-3.15-3.27-2.85l-56.27,9.62c-2.62,0.45-4.59,2.64-4.75,5.29 l-0.23,3.77c-0.18,3.02-2.43,5.52-5.41,6.02l-22.65,3.81c-2.24,0.38-3.89,2.32-3.89,4.6l-2.59,54.38c0,0,0.33,0.14,4.04-0.8 l89.2-21.11C110.11,94.51,111.65,93.25,112.56,91.65z" fill="#FFE36C"/>
    <path d="M21.63,58.73l22.76-3.89 c5.7-1.27,6.61-3.43,6.6-7.97L51,45.7c0.18-3.42,1.84-5.44,5.21-6.02l55.67-9.65" fill="none" stroke="#FFF9C4" stroke-width="2" stroke-linecap="round" stroke-miterlimit="10"/>
  </g>
</svg>
